azure-icons/command-1122-Move.svg

<svg xmlns="http://www.w3.org/2000/svg" width="16" height="16"><path d="M2.41 8.5L4 10.1l-.71.71L.5 8l2.81-2.81.69.71-1.59 1.6H5.5v1zM10.1 12l.71.71L8 15.5l-2.81-2.81.71-.69 1.6 1.61V10.5h1v3.09zM5.93 4l-.7-.7L8 .5l2.81 2.81-.71.69-1.6-1.59V5.5h-1V2.41zm9.57 4l-2.78 2.77-.7-.7 1.57-1.57H10.5v-1h3.09L12 5.9l.71-.71z"/></svg>

<svg xmlns="http://www.w3.org/2000/svg" width="16" height="16" viewBox="0 0 16 16">
  <title>Icon-command-1122Artboard 2</title>
  <g id="a7f524bb-e7ab-4a8e-927f-e60251aa6323">
    <path d="M2.41,8.5,4,10.1l-.71.71L.5,8,3.31,5.19,4,5.9,2.41,7.5H5.5v1ZM10.1,12l.71.71L8,15.5,5.19,12.69,5.9,12l1.6,1.61V10.5h1v3.09ZM5.93,4l-.7-.7L8,.5l2.81,2.81L10.1,4,8.5,2.41V5.5h-1V2.41ZM15.5,8l-2.78,2.77-.7-.7L13.59,8.5H10.5v-1h3.09L12,5.9l.71-.71Z"/>
  </g>
</svg>
